!!!!SEGMENT: pl-wtm--r-1690--004_stefani-jozef--oj-zoneczka-no-3.krn
!!!cenid: 18xx:2310
!!!COM: Stefani, Józef
!!!COM-rismID:
!!!CDT: 1800/04/16-1876/03/19
!!!CNT: Polish
!!!OPR: Oj żoneczka
!!!OTL: No. 3
!!!OMV: 004
!!!PDT:
!!!AGN: Secular
!!!SMS-siglum: PL-Wtm
!!!SMS-shelfmark: R 1690
!!!SMS-shelfwork: 001-004 M
!!!SMS-variant:
!!!SMS-altvar:
!!!NIFC-rismSourceID: 1001114714
!!!NIFC-islandoraID: pl-wtm:28053
!!!URL-pdf-islandora: https://repozytorium.nifc.pl/islandora/object/pl-wtm%3A28053/datastream/PDF/view
!!!URL-scan: https://polish.musicsources.pl/pl/lokalizacje/galeria/rekopisy/6430 @EN{Scan on Polish Music Herritage in Open Access Website} @PL{Skany w portalu Dziedzictwo Muzyki Polskiej w otwartym dostępie}
!!!ONB-nifc: UWAGA: skany 0008-0009
!!!AIN: 1 clars 1 cor 4 empty 1 flt 1 viola 3 violn
!!!key:
**kern	**dynam	**kern	**dynam	**kern	**dynam	**kern	**dynam	**kern	**dynam	**kern	**dynam	**kern	**dynam	**kern	**text	**kern	**text	**kern	**text	**kern	**text
*part11	*part11	*part10	*part10	*part9	*part9	*part8	*part8	*part7	*part7	*part6	*part6	*part5	*part5	*part4	*part4	*part3	*part3	*part2	*part2	*part1	*part1
*staff11	*	*staff10	*	*staff9	*	*staff8	*	*staff7	*	*staff6	*	*staff5	*	*staff4	*staff4	*staff3	*staff3	*staff2	*staff2	*staff1	*staff1
*Ivioln	*	*Iviola	*	*Ivioln	*	*Ivioln	*	*Icor	*	*Iclars	*	*Iflt	*	*Iempty	*	*Iempty	*	*Iempty	*	*Iempty	*
*I"V: C: C: B:	*	*I"Viola	*	*I"V II	*	*I"V I	*	*I"Corni D.	*	*I"Clarinetti A.	*	*I"Flauto.	*	*I"Saturnin	*	*I"Lambert	*	*I"Anusia	*	*I"Śpiew.	*
*I'V: C: C: B:	*	*I'Viola	*	*I'V II	*	*I'V I	*	*I'Corni D.	*	*I'Clar: A.	*	*I'Fl:	*	*I'Saturnin	*	*I'Lambert.	*	*I'Anusia.	*	*I'Śpiew	*
*clefF4	*	*clefC3	*	*clefG2	*	*clefG2	*	*clefG2	*	*clefG2	*	*clefG2	*	*clefG2	*	*clefG2	*	*clefG2	*	*clefG2	*
*	*	*	*	*	*	*	*	*ITrd6c10	*	*ITrd2c3	*	*	*	*	*	*	*	*	*	*	*
*k[f#c#]	*	*k[f#c#]	*	*k[f#c#]	*	*k[f#c#]	*	*k[f#c#]	*	*k[f#c#]	*	*k[f#c#]	*	*k[f#c#]	*	*k[f#c#]	*	*k[f#c#]	*	*k[f#c#]	*
*D:	*	*D:	*	*D:	*	*D:	*	*D:	*	*D:	*	*D:	*	*D:	*	*D:	*	*D:	*	*D:	*
*M2/4	*	*M2/4	*	*M2/4	*	*M2/4	*	*M2/4	*	*M2/4	*	*M2/4	*	*M2/4	*	*M2/4	*	*M2/4	*	*M2/4	*
!	!	!	!	!	!	!	!	!	!	!	!	!	!	!	!	!	!	!	!	!LO:TX:a:t=Nro 3. Allegretto	!
16D\	f	16F#\ 16d	f	16A/ 16f#	f	16f#\ 16dd	f	16d\ 16f#	f	16a\ 16ff#	f	16ddd\	f	16ryy	.	16ryy	.	16ryy	.	16r	.
=1	=1	=1	=1	=1	=1	=1	=1	=1	=1	=1	=1	=1	=1	=1	=1	=1	=1	=1	=1	=1	=1
4D;\	.	4F#;\ 4d	.	4A;/ 4f#	.	4f#;\ 4dd	.	4d;\ 4f#	.	4a;\ 4ff#	.	4ddd;\	.	2ryy	.	2ryy	.	2ryy	.	2r;	.
4r	.	4r	.	4r	.	4r	.	4r	.	4r	.	4r	.	.	.	.	.	.	.	.	.
=2	=2	=2	=2	=2	=2	=2	=2	=2	=2	=2	=2	=2	=2	=2	=2	=2	=2	=2	=2	=2	=2
!	!	!	!	!	!	!	!	!	!	!	!	!	!	!	!	!	!	!	!	!LO:TX:a:t=Saturnin.	!
8D\	p	8A/	p	8d/	p	8f#/	p	2r	.	2r	.	2r	.	2ryy	.	2ryy	.	2ryy	.	8.a/	Kie-
8r	.	8r	.	8r	.	8r	.	.	.	.	.	.	.	.	.	.	.	.	.	.	.
.	.	.	.	.	.	.	.	.	.	.	.	.	.	.	.	.	.	.	.	16g/	-dy
8D\	.	8A/	.	8d/	.	8f#/	.	.	.	.	.	.	.	.	.	.	.	.	.	8.f#/	się
8r	.	8r	.	8r	.	8r	.	.	.	.	.	.	.	.	.	.	.	.	.	.	.
.	.	.	.	.	.	.	.	.	.	.	.	.	.	.	.	.	.	.	.	16g/	przy
=3	=3	=3	=3	=3	=3	=3	=3	=3	=3	=3	=3	=3	=3	=3	=3	=3	=3	=3	=3	=3	=3
*rep	*	*rep	*	*rep	*	*rep	*	*	*	*	*	*	*	*	*	*	*	*	*	*	*
8D\	.	8A/	.	8d/	.	8f#/	.	2r	.	2r	.	2r	.	2ryy	.	2ryy	.	2ryy	.	4a/	niéj
8r	.	8r	.	8r	.	8r	.	.	.	.	.	.	.	.	.	.	.	.	.	.	.
8D\	.	8A/	.	8d/	.	8f#/	.	.	.	.	.	.	.	.	.	.	.	.	.	4dd\	znaj-
8r	.	8r	.	8r	.	8r	.	.	.	.	.	.	.	.	.	.	.	.	.	.	.
*Xrep	*	*Xrep	*	*Xrep	*	*Xrep	*	*	*	*	*	*	*	*	*	*	*	*	*	*	*
=4	=4	=4	=4	=4	=4	=4	=4	=4	=4	=4	=4	=4	=4	=4	=4	=4	=4	=4	=4	=4	=4
*rep	*	*	*	*rep	*	*	*	*	*	*	*	*	*	*	*	*	*	*	*	*	*
8D\	.	8B/	.	8d/	.	8g/	.	2r	.	2r	.	2r	.	2ryy	.	2ryy	.	2ryy	.	2b/	-du-
8r	.	8r	.	8r	.	8r	.	.	.	.	.	.	.	.	.	.	.	.	.	.	.
8D\	.	8B/	.	8d/	.	8g/	.	.	.	.	.	.	.	.	.	.	.	.	.	.	.
8r	.	8r	.	8r	.	8r	.	.	.	.	.	.	.	.	.	.	.	.	.	.	.
*Xrep	*	*	*	*Xrep	*	*	*	*	*	*	*	*	*	*	*	*	*	*	*	*	*
=5	=5	=5	=5	=5	=5	=5	=5	=5	=5	=5	=5	=5	=5	=5	=5	=5	=5	=5	=5	=5	=5
*rep	*	*	*	*	*	*	*	*	*	*	*	*	*	*	*	*	*	*	*	*	*
8D\	.	8A/	.	8d/	.	8f#/	.	2r	.	2r	.	2r	.	2ryy	.	2ryy	.	2ryy	.	8a/	-ję
8r	.	8r	.	8r	.	8r	.	.	.	.	.	.	.	.	.	.	.	.	.	8r	.
8D\	.	8d\	.	8f#/	.	8a/	.	.	.	.	.	.	.	.	.	.	.	.	.	8.dd\	min-
8r	.	8r	.	8r	.	8r	.	.	.	.	.	.	.	.	.	.	.	.	.	.	.
.	.	.	.	.	.	.	.	.	.	.	.	.	.	.	.	.	.	.	.	16cc#\	-ka
*Xrep	*	*	*	*	*	*	*	*	*	*	*	*	*	*	*	*	*	*	*	*	*
=6	=6	=6	=6	=6	=6	=6	=6	=6	=6	=6	=6	=6	=6	=6	=6	=6	=6	=6	=6	=6	=6
8G\	.	8d\	.	8g/	.	8b/	.	2r	.	2r	.	2r	.	2ryy	.	2ryy	.	2ryy	.	4b/	żar-
8r	.	8r	.	8r	.	8r	.	.	.	.	.	.	.	.	.	.	.	.	.	.	.
8F#\	.	8d\	.	8d/	.	8a/	.	.	.	.	.	.	.	.	.	.	.	.	.	4a/	-tu
8r	.	8r	.	8r	.	8r	.	.	.	.	.	.	.	.	.	.	.	.	.	.	.
=7	=7	=7	=7	=7	=7	=7	=7	=7	=7	=7	=7	=7	=7	=7	=7	=7	=7	=7	=7	=7	=7
8E\	.	8B/	.	8d/	.	8g#X/	.	2r	.	2r	.	2r	.	2ryy	.	2ryy	.	2ryy	.	8.g#X/L	twarz
8r	.	8r	.	8r	.	8r	.	.	.	.	.	.	.	.	.	.	.	.	.	.	.
.	.	.	.	.	.	.	.	.	.	.	.	.	.	.	.	.	.	.	.	16a/K	.
8E\	.	8B/	.	8d/	.	8g#/	.	.	.	.	.	.	.	.	.	.	.	.	.	8.b/J	.
8r	.	8r	.	8r	.	8r	.	.	.	.	.	.	.	.	.	.	.	.	.	.	.
.	.	.	.	.	.	.	.	.	.	.	.	.	.	.	.	.	.	.	.	16cc#/	za-
=8	=8	=8	=8	=8	=8	=8	=8	=8	=8	=8	=8	=8	=8	=8	=8	=8	=8	=8	=8	=8	=8
*	*	*rep	*	*rep	*	*rep	*	*	*	*	*	*	*	*	*	*	*	*	*	*	*
8E#X\	.	8B/	.	8d/	.	8g#X/	.	2r	.	2r	.	2r	.	2ryy	.	2ryy	.	2ryy	.	2dd/	-kre-
8r	.	8r	.	8r	.	8r	.	.	.	.	.	.	.	.	.	.	.	.	.	.	.
8E#\	.	8B/	.	8d/	.	8g#/	.	.	.	.	.	.	.	.	.	.	.	.	.	.	.
8r	.	8r	.	8r	.	8r	.	.	.	.	.	.	.	.	.	.	.	.	.	.	.
*	*	*Xrep	*	*Xrep	*	*Xrep	*	*	*	*	*	*	*	*	*	*	*	*	*	*	*
=9	=9	=9	=9	=9	=9	=9	=9	=9	=9	=9	=9	=9	=9	=9	=9	=9	=9	=9	=9	=9	=9
8F#\	.	8A/	.	8c#/	.	8a/	.	2r	.	2r	.	2r	.	2ryy	.	2ryy	.	2ryy	.	8cc#/	-śla
8r	.	8r	.	8r	.	8r	.	.	.	.	.	.	.	.	.	.	.	.	.	8r	.
8C#/	.	8A/	.	8e/	.	8a/	.	.	.	.	.	.	.	.	.	.	.	.	.	8.ee\	min-
8r	.	8r	.	8r	.	8r	.	.	.	.	.	.	.	.	.	.	.	.	.	.	.
.	.	.	.	.	.	.	.	.	.	.	.	.	.	.	.	.	.	.	.	16ee\	-ka
=10	=10	=10	=10	=10	=10	=10	=10	=10	=10	=10	=10	=10	=10	=10	=10	=10	=10	=10	=10	=10	=10
8D/	.	8A/	.	8f#/	.	8a/	.	4r	.	4r	.	4r	.	2ryy	.	2ryy	.	2ryy	.	4dd\	żar-
8r	.	8r	.	8r	.	8r	.	.	.	.	.	.	.	.	.	.	.	.	.	.	.
8BB/	.	8d\	.	8f#/	.	8b/	.	8d\ 8f#	.	8dd\ 8ff#	p	8bb\	p	.	.	.	.	.	.	4b\	-tu
8r	.	8r	.	8r	.	8r	.	8r	.	8r	.	8r	.	.	.	.	.	.	.	.	.
=11	=11	=11	=11	=11	=11	=11	=11	=11	=11	=11	=11	=11	=11	=11	=11	=11	=11	=11	=11	=11	=11
*	*	*	*	*	*	*	*	*^	*	*	*	*	*	*	*	*	*	*	*	*	*
8E\	.	8B/	.	8d/	.	8g#X/	.	8e/	8e\	.	8b\ 8dd	.	8gg#X\	.	2ryy	.	2ryy	.	2ryy	.	8.g#X/L	twarz
8r	.	8r	.	8r	.	8r	.	8r	8ryy	.	8r	.	8r	.	.	.	.	.	.	.	.	.
.	.	.	.	.	.	.	.	.	.	.	.	.	.	.	.	.	.	.	.	.	16a/K	.
8E\	.	8B/	.	8d/	.	8g#/	.	8e/	8e\	.	8b\ 8dd	.	8gg#\	.	.	.	.	.	.	.	8.b/J	.
8r	.	8r	.	8r	.	8r	.	8r	8ryy	.	8r	.	8r	.	.	.	.	.	.	.	.	.
.	.	.	.	.	.	.	.	.	.	.	.	.	.	.	.	.	.	.	.	.	16cc#/	za-
*	*	*	*	*	*	*	*	*v	*v	*	*	*	*	*	*	*	*	*	*	*	*	*
=12	=12	=12	=12	=12	=12	=12	=12	=12	=12	=12	=12	=12	=12	=12	=12	=12	=12	=12	=12	=12	=12
2AA;/	.	2A;/	.	2c#;/	.	2a;/	.	2A;/ 2e	.	2a;\ 2cc#	.	2aa;<\	.	2ryy	.	2ryy	.	2ryy	.	2a;/	-kre-
=13	=13	=13	=13	=13	=13	=13	=13	=13	=13	=13	=13	=13	=13	=13	=13	=13	=13	=13	=13	=13	=13
4AA/	.	4A/	.	4c#/	.	4a/	.	4A/ 4e	.	4a\ 4cc#	.	4aa\	.	2ryy	.	2ryy	.	2ryy	.	4a/	-śla
!LO:TX:b:t=VS.	!	!	!	!	!	!	!	!	!	!	!	!	!	!	!	!	!	!	!	!LO:TX:t=40.	!
4r	.	4r	.	4r	.	4r	.	4r	.	4r	.	4r	.	.	.	.	.	.	.	4r	.
!!LO:PB:g=original
=14	=14	=14	=14	=14	=14	=14	=14	=14	=14	=14	=14	=14	=14	=14	=14	=14	=14	=14	=14	=14	=14
8D\	.	8A/	.	8d/	.	8f#/	.	2r	.	2r	.	2r	.	2ryy	.	2ryy	.	2ryy	.	8.a/	Kie-
8r	.	8r	.	8r	.	8r	.	.	.	.	.	.	.	.	.	.	.	.	.	.	.
.	.	.	.	.	.	.	.	.	.	.	.	.	.	.	.	.	.	.	.	16gn/	-dy
8D\	.	8A/	.	8d/	.	8f#/	.	.	.	.	.	.	.	.	.	.	.	.	.	8.f#/	przy
8r	.	8r	.	8r	.	8r	.	.	.	.	.	.	.	.	.	.	.	.	.	.	.
.	.	.	.	.	.	.	.	.	.	.	.	.	.	.	.	.	.	.	.	16g/	niéj
=15	=15	=15	=15	=15	=15	=15	=15	=15	=15	=15	=15	=15	=15	=15	=15	=15	=15	=15	=15	=15	=15
*rep	*	*rep	*	*rep	*	*rep	*	*	*	*	*	*	*	*	*	*	*	*	*	*	*
8D\	.	8A/	.	8d/	.	8f#/	.	2r	.	2r	.	2r	.	2ryy	.	2ryy	.	2ryy	.	4a/	za-
8r	.	8r	.	8r	.	8r	.	.	.	.	.	.	.	.	.	.	.	.	.	.	.
8D\	.	8A/	.	8d/	.	8f#/	.	.	.	.	.	.	.	.	.	.	.	.	.	4dd/	-pał
8r	.	8r	.	8r	.	8r	.	.	.	.	.	.	.	.	.	.	.	.	.	.	.
*Xrep	*	*Xrep	*	*Xrep	*	*Xrep	*	*	*	*	*	*	*	*	*	*	*	*	*	*	*
=16	=16	=16	=16	=16	=16	=16	=16	=16	=16	=16	=16	=16	=16	=16	=16	=16	=16	=16	=16	=16	=16
*rep	*	*	*	*rep	*	*	*	*	*	*	*	*	*	*	*	*	*	*	*	*	*
8D\	.	8B/	.	8d/	.	8g/	.	2r	.	2r	.	2r	.	2ryy	.	2ryy	.	2ryy	.	2b/	czu-
8r	.	8r	.	8r	.	8r	.	.	.	.	.	.	.	.	.	.	.	.	.	.	.
8D\	.	8B/	.	8d/	.	8g/	.	.	.	.	.	.	.	.	.	.	.	.	.	.	.
8r	.	8r	.	8r	.	8r	.	.	.	.	.	.	.	.	.	.	.	.	.	.	.
*Xrep	*	*	*	*Xrep	*	*	*	*	*	*	*	*	*	*	*	*	*	*	*	*	*
=17	=17	=17	=17	=17	=17	=17	=17	=17	=17	=17	=17	=17	=17	=17	=17	=17	=17	=17	=17	=17	=17
*rep	*	*	*	*rep	*	*	*	*	*	*	*	*	*	*	*	*	*	*	*	*	*
8D\	.	8A/	.	8d/	.	8f#/	.	2r	.	2r	.	2r	.	2ryy	.	2ryy	.	2ryy	.	8a/	-ję
8r	.	8r	.	8r	.	8r	.	.	.	.	.	.	.	.	.	.	.	.	.	8r	.
8D\	.	8A/	.	8d/	.	8f#/	.	.	.	.	.	.	.	.	.	.	.	.	.	8.dd\	O-
8r	.	8r	.	8r	.	8r	.	.	.	.	.	.	.	.	.	.	.	.	.	.	.
.	.	.	.	.	.	.	.	.	.	.	.	.	.	.	.	.	.	.	.	16cc#\	-na
*Xrep	*	*	*	*Xrep	*	*	*	*	*	*	*	*	*	*	*	*	*	*	*	*	*
=18	=18	=18	=18	=18	=18	=18	=18	=18	=18	=18	=18	=18	=18	=18	=18	=18	=18	=18	=18	=18	=18
8G\	.	8B/	.	8d/	.	8g/	.	2r	.	2r	.	2r	.	2ryy	.	2ryy	.	2ryy	.	4b\	o-
8r	.	8r	.	8r	.	8r	.	.	.	.	.	.	.	.	.	.	.	.	.	.	.
8E\	.	8B/	.	8e/	.	8g/	.	.	.	.	.	.	.	.	.	.	.	.	.	4ee\	-bo-
8r	.	8r	.	8r	.	8r	.	.	.	.	.	.	.	.	.	.	.	.	.	.	.
=19	=19	=19	=19	=19	=19	=19	=19	=19	=19	=19	=19	=19	=19	=19	=19	=19	=19	=19	=19	=19	=19
8A\	.	8A/	.	8c#/	.	8e/	.	2r	.	2r	.	2r	.	2ryy	.	2ryy	.	2ryy	.	8.dd\L	-ję-
8r	.	8r	.	8r	.	8r	.	.	.	.	.	.	.	.	.	.	.	.	.	.	.
.	.	.	.	.	.	.	.	.	.	.	.	.	.	.	.	.	.	.	.	16cc#\K	.
8AA/	.	8c#\	.	8e/	.	8a/	.	.	.	.	.	.	.	.	.	.	.	.	.	8.b\J	.
8r	.	8r	.	8r	.	8r	.	.	.	.	.	.	.	.	.	.	.	.	.	.	.
.	.	.	.	.	.	.	.	.	.	.	.	.	.	.	.	.	.	.	.	16cc#\	-tność
=20	=20	=20	=20	=20	=20	=20	=20	=20	=20	=20	=20	=20	=20	=20	=20	=20	=20	=20	=20	=20	=20
8D/	.	8d\	.	8d/	.	8f#/	.	2r	.	2r	.	2r	.	2ryy	.	2ryy	.	2ryy	.	2dd\	zmy-
8r	.	8r	.	8r	.	8r	.	.	.	.	.	.	.	.	.	.	.	.	.	.	.
8D/	.	8A/	.	8d/	.	8f#/	.	.	.	.	.	.	.	.	.	.	.	.	.	.	.
8r	.	8r	.	8r	.	8r	.	.	.	.	.	.	.	.	.	.	.	.	.	.	.
=21	=21	=21	=21	=21	=21	=21	=21	=21	=21	=21	=21	=21	=21	=21	=21	=21	=21	=21	=21	=21	=21
8D/	.	8A/	.	8d/	.	8f#/	.	2r	.	2r	.	2r	.	2ryy	.	2ryy	.	2ryy	.	8dd\	-śla
8r	.	8r	.	8r	.	8r	.	.	.	.	.	.	.	.	.	.	.	.	.	8r	.
8D/	.	8A/	.	8d/	.	8f#/	.	.	.	.	.	.	.	.	.	.	.	.	.	4r	.
8r	.	8r	.	8r	.	8r	.	.	.	.	.	.	.	.	.	.	.	.	.	.	.
=22	=22	=22	=22	=22	=22	=22	=22	=22	=22	=22	=22	=22	=22	=22	=22	=22	=22	=22	=22	=22	=22
!	!	!	!	!	!	!	!	!	!	!	!	!	!	!	!	!	!	!	!	!LO:TX:a:t=Anusia.	!
8C#/	.	8A/	.	8e/	.	8g/	.	2r	.	2r	.	2r	.	2ryy	.	2ryy	.	2ryy	.	4.ee\	Pró-
8r	.	8r	.	8r	.	8r	.	.	.	.	.	.	.	.	.	.	.	.	.	.	.
8AA/	.	8A/	.	8e/	.	8g/	.	.	.	.	.	.	.	.	.	.	.	.	.	.	.
8r	.	8r	.	8r	.	8r	.	.	.	.	.	.	.	.	.	.	.	.	.	8ee\	-żno
=23	=23	=23	=23	=23	=23	=23	=23	=23	=23	=23	=23	=23	=23	=23	=23	=23	=23	=23	=23	=23	=23
*rep	*	*rep	*	*rep	*	*rep	*	*	*	*	*	*	*	*	*	*	*	*	*	*	*
8C#/	.	8A/	.	8e/	.	8g/	.	2r	.	2r	.	2r	.	2ryy	.	2ryy	.	2ryy	.	8.dd\	chce-
8r	.	8r	.	8r	.	8r	.	.	.	.	.	.	.	.	.	.	.	.	.	.	.
.	.	.	.	.	.	.	.	.	.	.	.	.	.	.	.	.	.	.	.	16cc#\	-cie
8AA/	.	8A/	.	8e/	.	8g/	.	.	.	.	.	.	.	.	.	.	.	.	.	8.b\	bym
8r	.	8r	.	8r	.	8r	.	.	.	.	.	.	.	.	.	.	.	.	.	.	.
.	.	.	.	.	.	.	.	.	.	.	.	.	.	.	.	.	.	.	.	16cc#\	od-
*Xrep	*	*Xrep	*	*Xrep	*	*Xrep	*	*	*	*	*	*	*	*	*	*	*	*	*	*	*
=24	=24	=24	=24	=24	=24	=24	=24	=24	=24	=24	=24	=24	=24	=24	=24	=24	=24	=24	=24	=24	=24
*	*	*rep	*	*	*	*	*	*	*	*	*	*	*	*	*	*	*	*	*	*	*
8D/	.	8A/	.	8d/	.	8f#/	.	2r	.	2r	.	2r	.	2ryy	.	2ryy	.	2ryy	.	2dd\	-da-
8r	.	8r	.	8r	.	8r	.	.	.	.	.	.	.	.	.	.	.	.	.	.	.
8AA/	.	8A/	.	8d/	.	8f#/	.	.	.	.	.	.	.	.	.	.	.	.	.	.	.
8r	.	8r	.	8r	.	8r	.	.	.	.	.	.	.	.	.	.	.	.	.	.	.
*	*	*Xrep	*	*	*	*	*	*	*	*	*	*	*	*	*	*	*	*	*	*	*
=25	=25	=25	=25	=25	=25	=25	=25	=25	=25	=25	=25	=25	=25	=25	=25	=25	=25	=25	=25	=25	=25
*rep	*	*rep	*	*rep	*	*rep	*	*	*	*	*	*	*	*	*	*	*	*	*	*	*
8D/	.	8A/	.	8d/	.	8f#/	.	2r	.	2r	.	2r	.	2ryy	.	2ryy	.	2ryy	.	4a/	-ła
8r	.	8r	.	8r	.	8r	.	.	.	.	.	.	.	.	.	.	.	.	.	.	.
8AA/	.	8A/	.	8d/	.	8f#/	.	.	.	.	.	.	.	.	.	.	.	.	.	4r	.
8r	.	8r	.	8r	.	8r	.	.	.	.	.	.	.	.	.	.	.	.	.	.	.
*Xrep	*	*Xrep	*	*Xrep	*	*Xrep	*	*	*	*	*	*	*	*	*	*	*	*	*	*	*
=26	=26	=26	=26	=26	=26	=26	=26	=26	=26	=26	=26	=26	=26	=26	=26	=26	=26	=26	=26	=26	=26
*	*	*rep	*	*	*	*	*	*	*	*	*	*	*	*	*	*	*	*	*	*	*
8C#/	.	8A/	.	8e/	.	8g/	.	4A\ 4e	p	4g\ 4cc#	p	4ee\	p	2ryy	.	2ryy	.	2ryy	.	4ee\	Rę-
8r	.	8r	.	8r	.	8r	.	.	.	.	.	.	.	.	.	.	.	.	.	.	.
8AA/	.	8A/	.	8e/	.	8g/	.	8.A\L 8.e	.	8.g\L 8.cc#	.	8.ee\L	.	.	.	.	.	.	.	8.ee\	-kę
8r	.	8r	.	8r	.	8r	.	.	.	.	.	.	.	.	.	.	.	.	.	.	.
.	.	.	.	.	.	.	.	16A\Jk 16e	.	16g\Jk 16cc#	.	16ee\Jk	.	.	.	.	.	.	.	16ee\	brzyd-
*	*	*Xrep	*	*	*	*	*	*	*	*	*	*	*	*	*	*	*	*	*	*	*
=27	=27	=27	=27	=27	=27	=27	=27	=27	=27	=27	=27	=27	=27	=27	=27	=27	=27	=27	=27	=27	=27
*rep	*	*rep	*	*rep	*	*rep	*	*	*	*	*	*	*	*	*	*	*	*	*	*	*
*	*	*	*	*	*	*	*	*	*	*^	*	*	*	*	*	*	*	*	*	*	*
8C#/	.	8A/	.	8e/	.	8g/	.	8A\ 8e	.	8a/	8g\	.	8.dd\L	.	2ryy	.	2ryy	.	2ryy	.	8.dd\L	-kie-
8r	.	8r	.	8r	.	8r	.	8r	.	8r	8ryy	.	.	.	.	.	.	.	.	.	.	.
.	.	.	.	.	.	.	.	.	.	.	.	.	16cc#\K	.	.	.	.	.	.	.	16cc#\Jk	.
8AA/	.	8A/	.	8e/	.	8g/	.	8A\ 8e	.	8a/	8g\	.	8.b\	.	.	.	.	.	.	.	8.b\	-mu
8r	.	8r	.	8r	.	8r	.	8r	.	8r	8ryy	.	.	.	.	.	.	.	.	.	.	.
.	.	.	.	.	.	.	.	.	.	.	.	.	16cc#\Jk	.	.	.	.	.	.	.	16cc#\	star-
*Xrep	*	*Xrep	*	*Xrep	*	*Xrep	*	*	*	*	*	*	*	*	*	*	*	*	*	*	*	*
=28	=28	=28	=28	=28	=28	=28	=28	=28	=28	=28	=28	=28	=28	=28	=28	=28	=28	=28	=28	=28	=28	=28
8D\	.	8A/	.	8d/	.	8f#/	.	8d\ 8f#	.	8a/	8f#\	.	8dd\	.	2ryy	.	2ryy	.	2ryy	.	(4dd\	-co-
8r	.	8r	.	8r	.	8r	.	8r	.	8r	8ryy	.	8r	.	.	.	.	.	.	.	.	.
8D\	.	8B/	.	8d/	.	8f#/	.	8d\ 8g	.	8dd/	8b\	.	8gg\	.	.	.	.	.	.	.	16ee\LL	.
.	.	.	.	.	.	.	.	.	.	.	.	.	.	.	.	.	.	.	.	.	16dd\	.
8r	.	8r	.	8r	.	8r	.	8r	.	8r	8ryy	.	8r	.	.	.	.	.	.	.	16cc#\	.
!	!	!	!	!	!	!	!	!	!	!	!	!	!	!	!	!	!	!	!	!	!LO:TX:t=42	!
.	.	.	.	.	.	.	.	.	.	.	.	.	.	.	.	.	.	.	.	.	16b\JJ)	.
!!LO:LB:g=original
=29	=29	=29	=29	=29	=29	=29	=29	=29	=29	=29	=29	=29	=29	=29	=29	=29	=29	=29	=29	=29	=29	=29
8D\	.	8A/	.	8d/	.	8f#/	.	8d\ 8f#	.	8dd/	8a\	.	8ff#\	.	2ryy	.	2ryy	.	2ryy	.	4a/	-wi,
8r	.	8r	.	8r	.	8r	.	8r	.	8r	4.ryy	.	8r	.	.	.	.	.	.	.	.	.
8D\	.	8A/	.	8d/	.	8f#/	.	4r	.	4r	.	.	4r	.	.	.	.	.	.	.	4r	.
8r	.	8r	.	8r	.	8r	.	.	.	.	.	.	.	.	.	.	.	.	.	.	.	.
*	*	*	*	*	*	*	*	*	*	*v	*v	*	*	*	*	*	*	*	*	*	*	*
=30	=30	=30	=30	=30	=30	=30	=30	=30	=30	=30	=30	=30	=30	=30	=30	=30	=30	=30	=30	=30	=30
*	*	*rep	*	*	*	*	*	*	*	*	*	*	*	*	*	*	*	*	*	*	*
!	!	!	!	!	!	!	!	!	!	!	!	!	!	!	!	!	!	!	!	!LO:TX:t=Lambert.	!
8C#/	.	8A/	.	8e/	.	8g/	.	2r	.	2r	.	2r	.	2ryy	.	2ryy	.	2ryy	.	4.ee\	W téj
8r	.	8r	.	8r	.	8r	.	.	.	.	.	.	.	.	.	.	.	.	.	.	.
8AA/	.	8A/	.	8e/	.	8g/	.	.	.	.	.	.	.	.	.	.	.	.	.	.	.
8r	.	8r	.	8r	.	8r	.	.	.	.	.	.	.	.	.	.	.	.	.	8ee\	się
*	*	*Xrep	*	*	*	*	*	*	*	*	*	*	*	*	*	*	*	*	*	*	*
=31	=31	=31	=31	=31	=31	=31	=31	=31	=31	=31	=31	=31	=31	=31	=31	=31	=31	=31	=31	=31	=31
*rep	*	*rep	*	*rep	*	*rep	*	*	*	*	*	*	*	*	*	*	*	*	*	*	*
8C#/	.	8A/	.	8e/	.	8g/	.	2r	.	2r	.	2r	.	2ryy	.	2ryy	.	2ryy	.	8.dd\	chwi-
8r	.	8r	.	8r	.	8r	.	.	.	.	.	.	.	.	.	.	.	.	.	.	.
.	.	.	.	.	.	.	.	.	.	.	.	.	.	.	.	.	.	.	.	16cc#\	-li
8AA/	.	8A/	.	8e/	.	8g/	.	.	.	.	.	.	.	.	.	.	.	.	.	8.b\	tu
8r	.	8r	.	8r	.	8r	.	.	.	.	.	.	.	.	.	.	.	.	.	.	.
.	.	.	.	.	.	.	.	.	.	.	.	.	.	.	.	.	.	.	.	16cc#\	spoj-
*Xrep	*	*Xrep	*	*Xrep	*	*Xrep	*	*	*	*	*	*	*	*	*	*	*	*	*	*	*
=32	=32	=32	=32	=32	=32	=32	=32	=32	=32	=32	=32	=32	=32	=32	=32	=32	=32	=32	=32	=32	=32
*	*	*rep	*	*	*	*	*	*	*	*	*	*	*	*	*	*	*	*	*	*	*
8D/	.	8A/	.	8d/	.	8f#/	.	2r	.	2r	.	2r	.	2ryy	.	2ryy	.	2ryy	.	2dd\	-rza-
8r	.	8r	.	8r	.	8r	.	.	.	.	.	.	.	.	.	.	.	.	.	.	.
8AA/	.	8A/	.	8d/	.	8f#/	.	.	.	.	.	.	.	.	.	.	.	.	.	.	.
8r	.	8r	.	8r	.	8r	.	.	.	.	.	.	.	.	.	.	.	.	.	.	.
*	*	*Xrep	*	*	*	*	*	*	*	*	*	*	*	*	*	*	*	*	*	*	*
=33	=33	=33	=33	=33	=33	=33	=33	=33	=33	=33	=33	=33	=33	=33	=33	=33	=33	=33	=33	=33	=33
*rep	*	*rep	*	*rep	*	*rep	*	*	*	*	*	*	*	*	*	*	*	*	*	*	*
8D/	.	8A/	.	8d/	.	8f#/	.	2r	.	2r	.	2r	.	2ryy	.	2ryy	.	2ryy	.	4a/	-ła
8r	.	8r	.	8r	.	8r	.	.	.	.	.	.	.	.	.	.	.	.	.	.	.
8AA/	.	8A/	.	8d/	.	8f#/	.	.	.	.	.	.	.	.	.	.	.	.	.	4r	.
8r	.	8r	.	8r	.	8r	.	.	.	.	.	.	.	.	.	.	.	.	.	.	.
*Xrep	*	*Xrep	*	*Xrep	*	*Xrep	*	*	*	*	*	*	*	*	*	*	*	*	*	*	*
=34	=34	=34	=34	=34	=34	=34	=34	=34	=34	=34	=34	=34	=34	=34	=34	=34	=34	=34	=34	=34	=34
*	*	*rep	*	*	*	*	*	*	*	*	*	*	*	*	*	*	*	*	*	*	*
8C#/	.	8A/	.	8e/	.	8g/	.	4A\ 4e	p	4g\ 4cc#	p	4ee\	p	2ryy	.	2ryy	.	2ryy	.	4.ee\	Pe-
8r	.	8r	.	8r	.	8r	.	.	.	.	.	.	.	.	.	.	.	.	.	.	.
8AA/	.	8A/	.	8e/	.	8g/	.	8.A\L 8.e	.	8.g\L 8.cc#	.	8.ee\L	.	.	.	.	.	.	.	.	.
!	!	!	!	!	!	!	!	!	!	!	!	!	!	!	!	!	!	!	!	!LO:TX:t=43	!
8r	.	8r	.	8r	.	8r	.	.	.	.	.	.	.	.	.	.	.	.	.	8ee\	-wnym
.	.	.	.	.	.	.	.	16A\Jk 16e	.	16g\Jk 16cc#	.	16ee\Jk	.	.	.	.	.	.	.	.	.
*	*	*Xrep	*	*	*	*	*	*	*	*	*	*	*	*	*	*	*	*	*	*	*
=35	=35	=35	=35	=35	=35	=35	=35	=35	=35	=35	=35	=35	=35	=35	=35	=35	=35	=35	=35	=35	=35
*rep	*	*rep	*	*rep	*	*rep	*	*	*	*	*	*	*	*	*	*	*	*	*	*	*
*	*	*	*	*	*	*	*	*	*	*^	*	*	*	*	*	*	*	*	*	*	*
8C#/	.	8A/	.	8e/	.	8g/	.	8A\ 8e	.	8a/	8g\	.	8.dd\L	.	2ryy	.	2ryy	.	2ryy	.	8.dd\	że
8r	.	8r	.	8r	.	8r	.	8r	.	8r	8ryy	.	.	.	.	.	.	.	.	.	.	.
.	.	.	.	.	.	.	.	.	.	.	.	.	16cc#\K	.	.	.	.	.	.	.	16cc#\	o
8AA/	.	8A/	.	8e/	.	8g/	.	8A\ 8e	.	8a/	8g\	.	8.b\	.	.	.	.	.	.	.	8.b\	to-
8r	.	8r	.	8r	.	8r	.	8r	.	8r	8ryy	.	.	.	.	.	.	.	.	.	.	.
.	.	.	.	.	.	.	.	.	.	.	.	.	16cc#\Jk	.	.	.	.	.	.	.	16cc#\	-bie
*Xrep	*	*Xrep	*	*Xrep	*	*Xrep	*	*	*	*	*	*	*	*	*	*	*	*	*	*	*	*
=36	=36	=36	=36	=36	=36	=36	=36	=36	=36	=36	=36	=36	=36	=36	=36	=36	=36	=36	=36	=36	=36	=36
8D/	.	8A/	.	8d/	.	8f#/	.	8d\ 8f#	.	8a/	8f#\	.	8dd\	.	2ryy	.	2ryy	.	2ryy	.	(4dd\	mó-
8r	.	8r	.	8r	.	8r	.	8r	.	8r	8ryy	.	8r	.	.	.	.	.	.	.	.	.
8D/	.	8B/	.	8d/	.	8g/	.	8d\ 8g	.	8dd/	8b\	.	8gg\	.	.	.	.	.	.	.	16ee\LL	.
.	.	.	.	.	.	.	.	.	.	.	.	.	.	.	.	.	.	.	.	.	16dd\	.
8r	.	8r	.	8r	.	8r	.	8r	.	8r	8ryy	.	8r	.	.	.	.	.	.	.	16cc#\	.
.	.	.	.	.	.	.	.	.	.	.	.	.	.	.	.	.	.	.	.	.	16b\JJ)	.
=37	=37	=37	=37	=37	=37	=37	=37	=37	=37	=37	=37	=37	=37	=37	=37	=37	=37	=37	=37	=37	=37	=37
*rep	*	*	*	*rep	*	*	*	*	*	*	*	*	*	*	*	*	*	*	*	*	*	*
8D/	.	8A/	.	8d/	.	8f#/	.	8d\ 8f#	.	8dd/	8a\	.	8ff#\	.	2ryy	.	2ryy	.	2ryy	.	4a/	-wi
8r	.	8r	.	8r	.	8r	.	8r	.	8r	4.ryy	.	8r	.	.	.	.	.	.	.	.	.
8D/	.	8A/	.	8d/	.	8f#/	.	4r	.	4r	.	.	4r	.	.	.	.	.	.	.	4r	.
8r	.	8r	.	8r	.	8r	.	.	.	.	.	.	.	.	.	.	.	.	.	.	.	.
*Xrep	*	*	*	*Xrep	*	*	*	*	*	*	*	*	*	*	*	*	*	*	*	*	*	*
*	*	*	*	*	*	*	*	*	*	*v	*v	*	*	*	*	*	*	*	*	*	*	*
!!LO:PB:g=original
=38	=38	=38	=38	=38	=38	=38	=38	=38	=38	=38	=38	=38	=38	=38	=38	=38	=38	=38	=38	=38	=38
8D/	.	8A/	.	8d/	.	8f#/	.	2r	.	2r	.	2r	.	4r	.	8.f#/	W téj	8.a/	Próż-	2ryy	.
8r	.	8r	.	8r	.	8r	.	.	.	.	.	.	.	.	.	.	.	.	.	.	.
.	.	.	.	.	.	.	.	.	.	.	.	.	.	.	.	16e/	się	16g/	-no.	.	.
8D/	.	8A/	.	8d/	.	8f#/	.	.	.	.	.	.	.	8d/	Kie-	8.d/	chwi-	8.f#/	chce-.	.	.
8r	.	8r	.	8r	.	8r	.	.	.	.	.	.	.	8d/	-dy	.	.	.	.	.	.
.	.	.	.	.	.	.	.	.	.	.	.	.	.	.	.	16e/	-li	16g/	-cie.	.	.
=39	=39	=39	=39	=39	=39	=39	=39	=39	=39	=39	=39	=39	=39	=39	=39	=39	=39	=39	=39	=39	=39
*rep	*	*rep	*	*rep	*	*rep	*	*	*	*	*	*	*	*	*	*	*	*	*	*	*
8D/	.	8A/	.	8d/	.	8f#/	.	2r	.	2r	.	2r	.	4d/	za-	4f#/	tu	4a/	bym	2ryy	.
8r	.	8r	.	8r	.	8r	.	.	.	.	.	.	.	.	.	.	.	.	.	.	.
8D/	.	8A/	.	8d/	.	8f#/	.	.	.	.	.	.	.	8f#/L	-pał	4f#/	spoj-	4dd\	od-	.	.
8r	.	8r	.	8r	.	8r	.	.	.	.	.	.	.	8a/J	.	.	.	.	.	.	.
*Xrep	*	*Xrep	*	*Xrep	*	*Xrep	*	*	*	*	*	*	*	*	*	*	*	*	*	*	*
=40	=40	=40	=40	=40	=40	=40	=40	=40	=40	=40	=40	=40	=40	=40	=40	=40	=40	=40	=40	=40	=40
*rep	*	*	*	*rep	*	*	*	*	*	*	*	*	*	*	*	*	*	*	*	*	*
!	!	!	!	!	!	!	!	!	!	!	!	!	!	!	!	!	!	!LO:TX:t=44	!	!	!
8D/	.	8B/	.	8d/	.	8g/	.	2r	.	2r	.	2r	.	8g/L	przy	2g/	-rza-	2b/	-da-	2ryy	.
8r	.	8r	.	8r	.	8r	.	.	.	.	.	.	.	8a/J	.	.	.	.	.	.	.
8D/	.	8B/	.	8d/	.	8g/	.	.	.	.	.	.	.	8b/L	niéj	.	.	.	.	.	.
8r	.	8r	.	8r	.	8r	.	.	.	.	.	.	.	8cc#/J	.	.	.	.	.	.	.
*Xrep	*	*	*	*Xrep	*	*	*	*	*	*	*	*	*	*	*	*	*	*	*	*	*
=41	=41	=41	=41	=41	=41	=41	=41	=41	=41	=41	=41	=41	=41	=41	=41	=41	=41	=41	=41	=41	=41
*rep	*	*	*	*rep	*	*	*	*	*	*	*	*	*	*	*	*	*	*	*	*	*
8D/	.	8A/	.	8d/	.	8f#/	.	2r	.	2r	.	2r	.	4dd\	czu-	8f#/	-ła	8a/	-ła	2ryy	.
8r	.	8r	.	8r	.	8r	.	.	.	.	.	.	.	.	.	8r	.	8r	.	.	.
8D/	.	8A/	.	8d/	.	8f#/	.	.	.	.	.	.	.	4d/	-ję	4r	.	4r	.	.	.
8r	.	8r	.	8r	.	8r	.	.	.	.	.	.	.	.	.	.	.	.	.	.	.
*Xrep	*	*	*	*Xrep	*	*	*	*	*	*	*	*	*	*	*	*	*	*	*	*	*
=42	=42	=42	=42	=42	=42	=42	=42	=42	=42	=42	=42	=42	=42	=42	=42	=42	=42	=42	=42	=42	=42
8GG/	.	8B/	.	8e/	.	8g/	.	2r	.	2r	.	2r	.	4r	.	(4g/	Pe-	4b/	Rę-	2ryy	.
8r	.	8r	.	8r	.	8r	.	.	.	.	.	.	.	.	.	.	.	.	.	.	.
8GG/	.	8B/	.	8e/	.	8g/	.	.	.	.	.	.	.	8g/	O-	8.b/)	.	8.ee\	-kę	.	.
8r	.	8r	.	8r	.	8r	.	.	.	.	.	.	.	8g/	-na	.	.	.	.	.	.
.	.	.	.	.	.	.	.	.	.	.	.	.	.	.	.	16b/	-wnym	16ee\	brzyd-	.	.
=43	=43	=43	=43	=43	=43	=43	=43	=43	=43	=43	=43	=43	=43	=43	=43	=43	=43	=43	=43	=43	=43
8AA/	.	8A/	.	8d/	.	8f#/	.	2r	.	2r	.	2r	.	8.a/	o-	8.f#/	że	4dd\	-kie-	2ryy	.
8r	.	8r	.	8r	.	8r	.	.	.	.	.	.	.	.	.	.	.	.	.	.	.
.	.	.	.	.	.	.	.	.	.	.	.	.	.	16a/	-bo-	16f#/	o	.	.	.	.
8.AA/L	.	8G/	.	8c#/	.	8e/	.	.	.	.	.	.	.	8.a/	-ję-	8.a/	to-	8.cc#\	-mu	.	.
.	.	8r	.	8r	.	8r	.	.	.	.	.	.	.	.	.	.	.	.	.	.	.
16AA#X/Jk	.	.	.	.	.	.	.	.	.	.	.	.	.	16a#X/	-tność	16g/	bie	16cc#\	star-	.	.
=44	=44	=44	=44	=44	=44	=44	=44	=44	=44	=44	=44	=44	=44	=44	=44	=44	=44	=44	=44	=44	=44
8BB/	.	8F#/	.	8d/	.	8d/	.	2r	.	2r	.	2r	.	2b/	zmy-	2f#/	mó-	2dd\	-co-	2ryy	.
8r	.	8r	.	8r	.	8r	.	.	.	.	.	.	.	.	.	.	.	.	.	.	.
8BB/	.	8F#/	.	8B/	.	8d/	.	.	.	.	.	.	.	.	.	.	.	.	.	.	.
8r	.	8r	.	8r	.	8r	.	.	.	.	.	.	.	.	.	.	.	.	.	.	.
=45	=45	=45	=45	=45	=45	=45	=45	=45	=45	=45	=45	=45	=45	=45	=45	=45	=45	=45	=45	=45	=45
8AAn/	.	8F#/	.	8B/	.	8d#X/	.	2r	.	2r	.	2r	.	4an/	-śla	4b/	-wi	(4.dd#X\	-wi	2ryy	.
8r	.	8r	.	8r	.	8r	.	.	.	.	.	.	.	.	.	.	.	.	.	.	.
8AA/	.	8B/	.	8d#X/	.	8f#/	.	.	.	.	.	.	.	4r	.	4r	.	.	.	.	.
8r	.	8r	.	8r	.	8r	.	.	.	.	.	.	.	.	.	.	.	16cc#\LL	.	.	.
.	.	.	.	.	.	.	.	.	.	.	.	.	.	.	.	.	.	16dd#\JJ)	.	.	.
=46	=46	=46	=46	=46	=46	=46	=46	=46	=46	=46	=46	=46	=46	=46	=46	=46	=46	=46	=46	=46	=46
8GG/	.	8B/	.	8e/	.	8e/	.	4r	.	4r	.	4r	.	4r	.	(4g/	Pe-	4ee\	Rę-	2ryy	.
8r	.	8r	.	8r	.	8r	.	.	.	.	.	.	.	.	.	.	.	.	.	.	.
8GG/	.	8B/	.	8e/	.	8g/	.	4e\ 4g	p	4b\ 4gg	p	4eee\	p	8g/	O-	8.b/)	.	8.gg\	-kę	.	.
8r	.	8r	.	8r	.	8r	.	.	.	.	.	.	.	8b/	-na	.	.	.	.	.	.
.	.	.	.	.	.	.	.	.	.	.	.	.	.	.	.	16g/	-wnym	16ee\	brzyd-	.	.
=47	=47	=47	=47	=47	=47	=47	=47	=47	=47	=47	=47	=47	=47	=47	=47	=47	=47	=47	=47	=47	=47
8AA/	.	8A/	.	8d/	.	8f#/	.	4A\ 4a	.	4a\ 4ff#	.	4ddd\	.	8.a/	o-	8.f#/	że	4ddn\	-kie-	2ryy	.
8r	.	8r	.	8r	.	8r	.	.	.	.	.	.	.	.	.	.	.	.	.	.	.
.	.	.	.	.	.	.	.	.	.	.	.	.	.	16a/	-bo-	16f#/	o	.	.	.	.
8AA/	.	8c#\	.	8e/	.	8g/	.	4AA/ 4A	.	4ee\ 4gg	.	4ccc#\	.	8.a/	-ję-	8.e/	to-	8.cc#\	-mu	.	.
8r	.	8r	.	8r	.	8r	.	.	.	.	.	.	.	.	.	.	.	.	.	.	.
.	.	.	.	.	.	.	.	.	.	.	.	.	.	16a/	-tność	16e/	-bie	16cc#\	star-	.	.
=48	=48	=48	=48	=48	=48	=48	=48	=48	=48	=48	=48	=48	=48	=48	=48	=48	=48	=48	=48	=48	=48
8AA/	.	8c#\	.	8e/	.	8g/	.	2AA/ 2A	.	2cc#\ 2gg	.	2eee\	.	2a/	zmy-	2g/	mó-	2ee\	-co-	2ryy	.
8r	.	8r	.	8r	.	8r	.	.	.	.	.	.	.	.	.	.	.	.	.	.	.
8AA/	.	8c#\	.	8e/	.	8g/	.	.	.	.	.	.	.	.	.	.	.	.	.	.	.
8r	.	8r	.	8r	.	8r	.	.	.	.	.	.	.	.	.	.	.	.	.	.	.
=49	=49	=49	=49	=49	=49	=49	=49	=49	=49	=49	=49	=49	=49	=49	=49	=49	=49	=49	=49	=49	=49
*^	*	*	*	*	*	*	*	*	*	*	*	*	*	*	*	*	*	*	*	*	*
4D\	4ryy	.	4d\	.	4d/	.	4f#/	.	4D/ 4d	.	4dd\ 4ff#	.	4ddd\	.	4d/	-śla	4f#/	-wi	4dd\	-wi	2ryy	.
*	*tremolo	*	*tremolo	*	*tremolo	*	*	*	*	*	*	*	*	*	*	*	*	*	*	*	*	*
16D/LL	8D\L	.	16F#/LL 16d	f	16A/LL 16f#	f	8dd\L	f	8d\L 8f#	f	8a\L 8dd	f	8ddd\L	f	4r	.	4r	.	4r	.	.	.
16D/	.	.	16F#/ 16d	.	16A/ 16f#	.	.	.	.	.	.	.	.	.	.	.	.	.	.	.	.	.
16D/	8D\J	.	16F#/ 16d	.	16A/ 16f#	.	8dd#X\J	.	8A\J 8f#	.	8a\J 8dd#X	.	8ddd#X\J	.	.	.	.	.	.	.	.	.
16D/JJ	.	.	16F#/JJ 16d	.	16A/JJ 16f#	.	.	.	.	.	.	.	.	.	.	.	.	.	.	.	.	.
=50	=50	=50	=50	=50	=50	=50	=50	=50	=50	=50	=50	=50	=50	=50	=50	=50	=50	=50	=50	=50	=50	=50
*	*	*	*	*	*	*	*	*	*tremolo	*	*	*	*	*	*	*	*	*	*	*	*	*
16AA/LL	8AA\L	.	16E/LL 16c#	.	16A/LL 16g	.	8ee\L	.	8A\L 8g	.	8cc#\L 8ee	.	8eee\L	.	2r	.	2r	.	2r	.	2ryy	.
16AA/	.	.	16E/ 16c#	.	16A/ 16g	.	.	.	.	.	.	.	.	.	.	.	.	.	.	.	.	.
16AA/	8AA\	.	16E/ 16c#	.	16A/ 16g	.	8ee\J	.	8A\ 8g	.	8cc#\ 8ee	.	8eee\J	.	.	.	.	.	.	.	.	.
16AA/	.	.	16E/ 16c#	.	16A/ 16g	.	.	.	.	.	.	.	.	.	.	.	.	.	.	.	.	.
16AA/	8AA\	.	16E/ 16c#	.	16A/ 16g	.	16ddn\LL	.	8A\ 8g	.	8cc#\ 8ee	.	16dddn\LL	.	.	.	.	.	.	.	.	.
16AA/	.	.	16E/ 16c#	.	16A/ 16g	.	16cc#\	.	.	.	.	.	16ccc#\	.	.	.	.	.	.	.	.	.
16AA/	8AA\J	.	16E/ 16c#	.	16A/ 16g	.	16b\	.	8A\J 8g	.	8cc#\J 8ee	.	16bb\	.	.	.	.	.	.	.	.	.
16AA/JJ	.	.	16E/JJ 16c#	.	16A/JJ 16g	.	16a\JJ	.	.	.	.	.	16aa\JJ	.	.	.	.	.	.	.	.	.
*	*	*	*	*	*	*	*	*	*Xtremolo	*	*	*	*	*	*	*	*	*	*	*	*	*
=51	=51	=51	=51	=51	=51	=51	=51	=51	=51	=51	=51	=51	=51	=51	=51	=51	=51	=51	=51	=51	=51	=51
16D/LL	8D\L	.	16F#/LL 16d	.	16A/LL 16f#	.	8ff#\L	.	8d\L 8f#	.	8dd\L 8ff#	.	8fff#\L	.	2r	.	2r	.	2ryy	.	2r	.
16D/	.	.	16F#/ 16d	.	16A/ 16f#	.	.	.	.	.	.	.	.	.	.	.	.	.	.	.	.	.
16D/	8D\J	.	16F#/ 16d	.	16A/ 16f#	.	16ff#\L	.	8d\ 8f#	.	8dd\ 8ff#	.	16fff#\L	.	.	.	.	.	.	.	.	.
16D/JJ	.	.	16F#/JJ 16d	.	16A/JJ 16f#	.	16gg\JJ	.	.	.	.	.	16ggg\JJ	.	.	.	.	.	.	.	.	.
16GG/LL	8GG\L	.	16e\LL	.	16B/LL 16g	.	(16aa\LL	.	8e\ 8g	.	8b\ 8ee	.	16aaa\LL	.	.	.	.	.	.	.	.	.
16GG/	.	.	16e\	.	16B/ 16g	.	16gg\	.	.	.	.	.	16ggg\	.	.	.	.	.	.	.	.	.
16GG/	8GG\J	.	16e\	.	16B/ 16g	.	16b\	.	8e\J 8g	.	8b\J 8ee	.	16bb\	.	.	.	.	.	.	.	.	.
16GG/JJ	.	.	16e\JJ	.	16B/JJ 16g	.	16ee\JJ)	.	.	.	.	.	16eee\JJ	.	.	.	.	.	.	.	.	.
=52	=52	=52	=52	=52	=52	=52	=52	=52	=52	=52	=52	=52	=52	=52	=52	=52	=52	=52	=52	=52	=52	=52
*	*	*	*	*	*	*	*	*	*tremolo	*	*	*	*	*	*	*	*	*	*	*	*	*
16AA/LL	8AA\L	.	16F#/LL 16d	.	16A/LL 16f#	.	8dd\L	.	8A\L 8a	.	8dd\L 8ff#	.	8ddd\L	.	2r	.	2r	.	2r	.	2ryy	.
16AA/	.	.	16F#/ 16d	.	16A/ 16f#	.	.	.	.	.	.	.	.	.	.	.	.	.	.	.	.	.
16AA/	8AA\	.	16F#/ 16d	.	16A/ 16f#	.	16ff#\L	.	8A\ 8a	.	8dd\ 8ff#	.	16fff#\L	.	.	.	.	.	.	.	.	.
16AA/	.	.	16F#/JJ 16d	.	16A/JJ 16f#	.	16dd\JJ	.	.	.	.	.	16ddd\JJ	.	.	.	.	.	.	.	.	.
16AA/	8AA\	.	16E/LL 16c#	.	16A/LL 16g	.	8aa\L	.	8A\ 8a	.	8cc#\ 8ee	.	8aaa\L	.	.	.	.	.	.	.	.	.
16AA/	.	.	16E/ 16c#	.	16A/ 16g	.	.	.	.	.	.	.	.	.	.	.	.	.	.	.	.	.
16AA/	8AA\J	.	16E/ 16c#	.	16A/ 16g	.	8cc#\J	.	8A\J 8a	.	8cc#\J 8ee	.	8ccc#\J	.	.	.	.	.	.	.	.	.
16AA/JJ	.	.	16E/JJ 16c#	.	16A/JJ 16g	.	.	.	.	.	.	.	.	.	.	.	.	.	.	.	.	.
*	*Xtremolo	*	*Xtremolo	*	*Xtremolo	*	*	*	*Xtremolo	*	*	*	*	*	*	*	*	*	*	*	*	*
=53	=53	=53	=53	=53	=53	=53	=53	=53	=53	=53	=53	=53	=53	=53	=53	=53	=53	=53	=53	=53	=53	=53
*	*	*	*	*	*	*	*	*	*	*	*^	*	*	*	*	*	*	*	*	*	*	*
8D/L	8D\L	.	8F#/L 8d	.	8A/L 8f#	.	8dd\L	.	8d\L 8f#	.	8dd/L	8dd\L	.	8ddd\L	.	2r	.	2r	.	2r	.	2ryy	.
8D/	8D\	.	8F#/ 8d	.	8A/ 8f#	.	8f#\ 8dd	.	8d\J 8f#	.	8dd/J	8a\J	.	8ddd\J	.	.	.	.	.	.	.	.	.
8D/J	8D\J	.	8F#/J 8d	.	8A/J 8f#	.	8f#\J 8dd	.	8d\ 8f#	.	8dd/	8a\	.	8ddd\	.	.	.	.	.	.	.	.	.
8r	8ryy	.	8r	.	8r	.	8r	.	8r	.	8r	8ryy	.	8r	.	.	.	.	.	.	.	.	.
*v	*v	*	*	*	*	*	*	*	*	*	*v	*v	*	*	*	*	*	*	*	*	*	*	*
==	==	==	==	==	==	==	==	==	==	==	==	==	==	==	==	==	==	==	==	==	==
*-	*-	*-	*-	*-	*-	*-	*-	*-	*-	*-	*-	*-	*-	*-	*-	*-	*-	*-	*-	*-	*-
!!!system-decoration: [(*)]
!!!RDF**kern: > = above
!!!RDF**kern: < = below
!!!ENC: Tomasz Grochalski
!!!END: 2021-06-04
